Numix-GalliumOS/24/actions/filter-note-unfiled.svg

<?xml version="1.0" encoding="UTF-8" standalone="no"?>
<svg
   xmlns:dc="http://purl.org/dc/elements/1.1/"
   xmlns:cc="http://creativecommons.org/ns#"
   xmlns:rdf="http://www.w3.org/1999/02/22-rdf-syntax-ns#"
   xmlns:svg="http://www.w3.org/2000/svg"
   xmlns="http://www.w3.org/2000/svg"
   xmlns:sodipodi="http://sodipodi.sourceforge.net/DTD/sodipodi-0.dtd"
   xmlns:inkscape="http://www.inkscape.org/namespaces/inkscape"
   viewBox="0 0 24 24"
   id="svg2"
   version="1.1"
   inkscape:version="0.91 r13725"
   sodipodi:docname="filter-note-unfiled.svg"
   width="24"
   height="24">
  <metadata
     id="metadata98">
    <rdf:RDF>
      <cc:Work
         rdf:about="">
        <dc:format>image/svg+xml</dc:format>
        <dc:type
           rdf:resource="http://purl.org/dc/dcmitype/StillImage" />
        <dc:title></dc:title>
      </cc:Work>
    </rdf:RDF>
  </metadata>
  <sodipodi:namedview
     pagecolor="#ffffff"
     bordercolor="#666666"
     borderopacity="1"
     objecttolerance="10"
     gridtolerance="10"
     guidetolerance="10"
     inkscape:pageopacity="0"
     inkscape:pageshadow="2"
     inkscape:window-width="1366"
     inkscape:window-height="704"
     id="namedview96"
     showgrid="true"
     inkscape:zoom="1"
     inkscape:cx="5.388603"
     inkscape:cy="10.297474"
     inkscape:window-x="0"
     inkscape:window-y="27"
     inkscape:window-maximized="1"
     inkscape:current-layer="svg2">
    <inkscape:grid
       type="xygrid"
       id="grid4360" />
  </sodipodi:namedview>
  <defs
     id="defs4">
    <path
       id="SVGCleanerId_0"
       d="m 14,12 20,0 c 1.105,0 2,0.895 2,2 l 0,20 c 0,1.105 -0.895,2 -2,2 l -20,0 c -1.105,0 -2,-0.895 -2,-2 l 0,-20 c 0,-1.105 0.895,-2 2,-2 m 0,0"
       inkscape:connector-curvature="0" />
  </defs>
  <g
     id="g34"
     transform="translate(0,-24)" />
  <rect
     style="opacity:1;fill:#e5e1c7;fill-opacity:1;stroke:none;stroke-width:3;stroke-linecap:round;stroke-linejoin:round;stroke-miterlimit:4;stroke-dasharray:none;stroke-opacity:1"
     id="rect4142"
     width="16"
     height="18"
     x="4"
     y="4"
     rx="2"
     ry="2" />
  <rect
     ry="1"
     rx="1"
     y="5"
     x="5"
     height="16"
     width="14"
     id="rect4182"
     style="opacity:1;fill:#eae7d1;fill-opacity:1;stroke:none;stroke-width:3;stroke-linecap:round;stroke-linejoin:round;stroke-miterlimit:4;stroke-dasharray:none;stroke-opacity:1" />
  <rect
     style="opacity:1;fill:#999999;fill-opacity:1;stroke:none;stroke-width:3;stroke-linecap:round;stroke-linejoin:round;stroke-miterlimit:4;stroke-dasharray:none;stroke-opacity:1"
     id="rect4170"
     width="1"
     height="3"
     x="6"
     y="3"
     rx="0.5"
     ry="0.5" />
  <rect
     ry="0.5"
     rx="0.5"
     y="3"
     x="8"
     height="3"
     width="1"
     id="rect4172"
     style="opacity:1;fill:#999999;fill-opacity:1;stroke:none;stroke-width:3;stroke-linecap:round;stroke-linejoin:round;stroke-miterlimit:4;stroke-dasharray:none;stroke-opacity:1" />
  <rect
     style="opacity:1;fill:#999999;fill-opacity:1;stroke:none;stroke-width:3;stroke-linecap:round;stroke-linejoin:round;stroke-miterlimit:4;stroke-dasharray:none;stroke-opacity:1"
     id="rect4174"
     width="1"
     height="3"
     x="10"
     y="3"
     rx="0.5"
     ry="0.5" />
  <rect
     ry="0.5"
     rx="0.5"
     y="3"
     x="13"
     height="3"
     width="1"
     id="rect4176"
     style="opacity:1;fill:#999999;fill-opacity:1;stroke:none;stroke-width:3;stroke-linecap:round;stroke-linejoin:round;stroke-miterlimit:4;stroke-dasharray:none;stroke-opacity:1" />
  <rect
     style="opacity:1;fill:#999999;fill-opacity:1;stroke:none;stroke-width:3;stroke-linecap:round;stroke-linejoin:round;stroke-miterlimit:4;stroke-dasharray:none;stroke-opacity:1"
     id="rect4178"
     width="1"
     height="3"
     x="15"
     y="3"
     rx="0.5"
     ry="0.5" />
  <rect
     ry="0.5"
     rx="0.5"
     y="3"
     x="17"
     height="3"
     width="1"
     id="rect4180"
     style="opacity:1;fill:#999999;fill-opacity:1;stroke:none;stroke-width:3;stroke-linecap:round;stroke-linejoin:round;stroke-miterlimit:4;stroke-dasharray:none;stroke-opacity:1" />
  <rect
     style="opacity:1;fill:#999999;fill-opacity:1;stroke:none;stroke-width:3;stroke-linecap:round;stroke-linejoin:round;stroke-miterlimit:4;stroke-dasharray:none;stroke-opacity:1"
     id="rect4184"
     width="12"
     height="1"
     x="6"
     y="8" />
  <rect
     y="10"
     x="6"
     height="1"
     width="12"
     id="rect4186"
     style="opacity:1;fill:#999999;fill-opacity:1;stroke:none;stroke-width:3;stroke-linecap:round;stroke-linejoin:round;stroke-miterlimit:4;stroke-dasharray:none;stroke-opacity:1" />
  <rect
     style="opacity:1;fill:#999999;fill-opacity:1;stroke:none;stroke-width:3;stroke-linecap:round;stroke-linejoin:round;stroke-miterlimit:4;stroke-dasharray:none;stroke-opacity:1"
     id="rect4188"
     width="8"
     height="1"
     x="6"
     y="12" />
  <rect
     y="14"
     x="6"
     height="1"
     width="8"
     id="rect4190"
     style="opacity:1;fill:#999999;fill-opacity:1;stroke:none;stroke-width:3;stroke-linecap:round;stroke-linejoin:round;stroke-miterlimit:4;stroke-dasharray:none;stroke-opacity:1" />
  <rect
     style="opacity:1;fill:#999999;fill-opacity:1;stroke:none;stroke-width:3;stroke-linecap:round;stroke-linejoin:round;stroke-miterlimit:4;stroke-dasharray:none;stroke-opacity:1"
     id="rect4192"
     width="12"
     height="1"
     x="6"
     y="16" />
  <rect
     y="18"
     x="6"
     height="1"
     width="12"
     id="rect4194"
     style="opacity:1;fill:#999999;fill-opacity:1;stroke:none;stroke-width:3;stroke-linecap:round;stroke-linejoin:round;stroke-miterlimit:4;stroke-dasharray:none;stroke-opacity:1" />
  <path
     style="fill:#dc322f;fill-opacity:1"
     d="M 22.999708,20.171573 20.171281,17.343146 22.999708,14.514719 20.171281,11.686292 17.342854,14.514719 14.514427,11.686292 11.686,14.514719 14.514427,17.343146 11.686,20.171573 14.514427,23 17.342854,20.171573 20.171281,23 Z"
     id="path6"
     inkscape:connector-curvature="0" />
</svg>

<svg xmlns="http://www.w3.org/2000/svg" viewBox="0 0 24 24">
 <rect width="16" height="18" x="4" y="4" rx="2" style="fill:#e5e1c7;opacity:1;fill-opacity:1;stroke:none"/>
 <rect rx="1" y="5" x="5" height="16" width="14" style="fill:#eae7d1;opacity:1;fill-opacity:1;stroke:none"/>
 <rect width="1" height="3" x="6" y="3" rx="0.5" style="fill:#999;opacity:1;fill-opacity:1;stroke:none"/>
 <rect rx="0.5" y="3" x="8" height="3" width="1" style="fill:#999;opacity:1;fill-opacity:1;stroke:none"/>
 <rect width="1" height="3" x="10" y="3" rx="0.5" style="fill:#999;opacity:1;fill-opacity:1;stroke:none"/>
 <rect rx="0.5" y="3" x="13" height="3" width="1" style="fill:#999;opacity:1;fill-opacity:1;stroke:none"/>
 <rect width="1" height="3" x="15" y="3" rx="0.5" style="fill:#999;opacity:1;fill-opacity:1;stroke:none"/>
 <rect rx="0.5" y="3" x="17" height="3" width="1" style="fill:#999;opacity:1;fill-opacity:1;stroke:none"/>
 <rect width="12" height="1" x="6" y="8" style="fill:#999;opacity:1;fill-opacity:1;stroke:none"/>
 <rect y="10" x="6" height="1" width="12" style="fill:#999;opacity:1;fill-opacity:1;stroke:none"/>
 <rect width="8" height="1" x="6" y="12" style="fill:#999;opacity:1;fill-opacity:1;stroke:none"/>
 <rect y="14" x="6" height="1" width="8" style="fill:#999;opacity:1;fill-opacity:1;stroke:none"/>
 <rect width="12" height="1" x="6" y="16" style="fill:#999;opacity:1;fill-opacity:1;stroke:none"/>
 <rect y="18" x="6" height="1" width="12" style="fill:#999;opacity:1;fill-opacity:1;stroke:none"/>
 <path d="m 23 20.17 -2.828 -2.828 2.828 -2.828 -2.828 -2.828 -2.828 2.828 -2.828 -2.828 -2.828 2.828 2.828 2.828 -2.828 2.828 2.828 2.828 2.828 -2.828 2.828 2.828" style="fill:#dc322f;fill-opacity:1"/>
</svg>
